X:1
T:Homeward Bound
M:2/4
L:1/8
K:D
 A/2A/2| FF GE| DD DA| BG dB| BA AB| GG GA| FF F A/2A/2| dA FD| GG CA,|\
 D D/2D/2 CE|D-F-A d| B G/2G/2 AC| D3||
